X: 1
T: Footworks
C: Jerry Holland
H: \251 Fiddlesticks Music Publishing
F: http://www.jerryholland.com/tunes/Footworks.gif
F: http://cranfordpub.com/tunes/abcs/hollandarchive.txt
R: reel
Z: 2010 John Chambers <jc:trillian.mit.edu>
M: C|
L: 1/8
K: G
dc \
| BG G/G/G AGEG | DEGB AGAB | cA A/A/A BAGA | EGAB cedA |
| BG G/G/G AGEG | DEGB AGAB | cBcd     efge | fdcA BGG :|
|: B \
| dg g/g/g afgd | efge GABG | Aa a/a/a bgad | eaag efge |
| dg g/g/g afgd | efge GABG | cdec     BcdB | FGAc BGG :|
